X:1
T:French Suite II (A = 415 Hz)
T:BWV 813
T:J. S. Bach
%%score { ( 1 3 5 ) | ( 2 4 ) }
L:1/8
Q:1/4=72
M:4/4
K:Eb
V:1 treble 
V:3 treble 
V:5 treble 
V:2 bass 
V:4 bass 
V:1
"^Adagio""^Allemande" G/ | G/=A/4=B/4c/d/ ed F/4E/4D/E/G/ c>c- | %2
 c/d/4e/4f/g/ a/g/4f/4g/d/ d/e/4f/4e/4d/4c/ gg- | g/a/4b/4 c'/e/ fa c/d/4e/4d/4c/4B/ ff- | %4
 f/g/4a/4b/d/ eg B/c/4_d/4c/4B/4A/ ee- | e/f/4g/4a aa- a/f/4g/4a aa- | %6
 a/g/4f/4g/e/ fd- d/e/4f/4 g/d/ ec- | c/^f/4g/4 =a/d/ ed B>e =A/c/4=B/4c- | %8
 c/=B/4c/4d- d/c/=A/^F/ G7/2 G/ | G/=A/4=B/4c/d/ ed F/4E/4D/E/G/ c>c- | %10
 c/d/4e/4f/g/ a/g/4f/4g/d/ d/e/4f/4e/4d/4c/ gg- | g/a/4b/4 c'/e/ fa c/d/4e/4d/4c/4B/ ff- | %12
 f/g/4a/4b/d/ eg B/c/4_d/4c/4B/4A/ ee- | e/f/4g/4a aa- a/f/4g/4a aa- | %14
 a/g/4f/4g/e/ fd- d/e/4f/4 g/d/ ec- | c/^f/4g/4 =a/d/ ed B>e =A/c/4=B/4c- | %16
 c/=B/4c/4d- d/c/=A/^F/ G7/2 d/ | d/=B/4c/4d/B/ z/ BB/ z/ c/4B/4c/G/ E/G/4F/4E/4D/4C/ | %18
 z/ =e/4f/4g/e/ z/ ee/- e/f/4e/4f/c/ z2 | _d2- d>d c2- c/f/4e/4d/c/ | %20
 B/_d/4c/4B/A/ G/B/4A/4G/F/ =E/4F/4G/4A/4B- B/=e/4f/4g/4a/4b/ | a>a- a/g=e/ f2 F/A/c/_e/ | %22
 d/4e/4f/4g/4a- a/g/4f/4e/4f/4g/ c/4d/4e/4f/4g- g/f/4e/4d/4e/4f/ | %23
 =B/4c/4d/4e/4f- f/e/4d/4c/4d/4e/- e/d/4c/4B/4c/4d/ A/4G/4A3/2- | %24
 A/=B/4c/4d- d/G/c- c/=A/4_B/4c/^F/ GB- | B/G/4A/4 B/=E/ FA =B,/4C/4D/4_E/4F- F/=B/4c/4d/4e/4f/ | %26
 z/4 a/4g/4^f/4g e>=B c7/2 d/ | d/=B/4c/4d/B/ z/ BB/ z/ c/4B/4c/G/ E/G/4F/4E/4D/4C/ | %28
 z/ =e/4f/4g/e/ z/ ee/- e/f/4e/4f/c/ z2 | _d2- d>d c2- c/f/4e/4d/c/ | %30
 B/_d/4c/4B/A/ G/B/4A/4G/F/ =E/4F/4G/4A/4B- B/=e/4f/4g/4a/4b/ | a>a- a/g=e/ f2 F/A/c/_e/ | %32
 d/4e/4f/4g/4a- a/g/4f/4e/4f/4g/ c/4d/4e/4f/4g- g/f/4e/4d/4e/4f/ | %33
 =B/4c/4d/4e/4f- f/e/4d/4c/4d/4e/- e/d/4c/4B/4c/4d/ A/4G/4A3/2- | %34
 A/=B/4c/4d- d/G/c- c/=A/4_B/4c/^F/ GB- | B/G/4A/4 B/=E/ FA =B,/4C/4D/4_E/4F- F/=B/4c/4d/4e/4f/ | %36
 z/4 a/4g/4^f/4g e>=B c7/2 z/ |[M:3/4] z6 |[Q:1/4=180]"^Courante" GA FG cG | FE DE DC | EG cG de | %41
 cf c=B dG- | G z2 z ge | cg BA cF- | F z2 z fd | Bf AG BE- | E z2 z BG | EB _DC cA | Fc ED dB | %49
 Gd FE ec | Ae GF fd | Bf AG Bc | AB ed eF | cB AG FE | ed c=B af | dg de dc | B=A G^F ec | %57
 =Ad AB AG | F=E D^C BG | =E=A EB, A^F | DG D=A, GE | C^F C G3 | GA FG cG | FE DE DC | EG cG de | %65
 cf c=B dG- | G z2 z ge | cg BA cF- | F z2 z fd | Bf AG BE- | E z2 z BG | EB _DC cA | Fc ED dB | %73
 Gd FE ec | Ae GF fd | Bf AG Bc | AB ed eF | cB AG FE | ed c=B af | dg de dc | B=A G^F ec | %81
 =Ad AB AG | F=E D^C BG | =E=A EB, A^F | DG D=A, GE | C^F C G3 | d=A c=B Gd | AG FE G=B | %88
 dc ED c=B | de fe dc | ed ff/4e/4f/4e/4 f/4e/4f/4e/4f/4e/4f/4e/4 | %91
 f/4e/4f/4e/4f/4e/4f/4e/4 f/4e/4f/4e/4f/4e/4f/4e/4 cf | ag bb/4a/4b/4a/4 b/4a/4b/4a/4b/4a/4b/4a/4 | %93
 b/4a/4b/4a/4b/4a/4b/4a/4 b/4a/4b/4a/4b/4a/4b/4a/4 b/4a/4b/4a/4b/4a/4b/4a/4 | %94
 b/4a/4b/4a/4b/4a/4b/4a/4 b/4a/4b/4a/4b/4a/4b/4a/4 b/4a/4b/4a/4a- | a f2- f2 =e- | e ^c2- c2 =c- | %97
 c B2- B _dc | BA =EF _dB/4A/4B/4A/4 | B/4A/4B/4A/4G FF cA | GF ED FA | G A2- A dB | AG FE GB | %103
 A B2- B ec | BA GF fd | c=B =AG gf | ed c=B dG | FE DC AF | DB GE cA | Fd =BG ec | =Af d=B ge | %111
 ca fd bg | ec' ga gf | ed c=B af | dg de dc | B=A G^F ec | =Ad AE d=B | Gc GD cA | F=B F c3 | %119
 d=A c=B Gd | AG FE G=B | dc ED c=B | de fe dc | ed ff/4e/4f/4e/4 f/4e/4f/4e/4f/4e/4f/4e/4 | %124
 f/4e/4f/4e/4f/4e/4f/4e/4 f/4e/4f/4e/4f/4e/4f/4e/4 cf | ag bb/4a/4b/4a/4 b/4a/4b/4a/4b/4a/4b/4a/4 | %126
 b/4a/4b/4a/4b/4a/4b/4a/4 b/4a/4b/4a/4b/4a/4b/4a/4 b/4a/4b/4a/4b/4a/4b/4a/4 | %127
 b/4a/4b/4a/4b/4a/4b/4a/4 b/4a/4b/4a/4b/4a/4b/4a/4 b/4a/4b/4a/4a- | a f2- f2 =e- | e ^c2- c2 =c- | %130
 c B2- B _dc | BA =EF _dB/4A/4B/4A/4 | B/4A/4B/4A/4G FF cA | GF ED FA | G A2- A dB | AG FE GB | %136
 A B2- B ec | BA GF fd | c=B =AG gf | ed c=B dG | FE DC AF | DB GE cA | Fd =BG ec | =Af d=B ge | %144
 ca fd bg | ec' ga gf | ed c=B af | dg de dc | B=A G^F ec | =Ad AE d=B | Gc GD cA | %151
 F=B F !fermata!c3 | z6 |[Q:1/4=80]"^Sarabande" ef/e/ d/e/c{c} g2- | g/c'/a/=e/{e} f4- | %155
 f/a/g/d/ e/g/f/c/ d/f/e/=B/ | c/e/d/=A/ =B3/2c/4d/4 c/B/A/G/ | ef/e/ d/e/c b2- | %158
 b/g/=e/c/{c} a>c _d2- | d/B/c/f/ =d/g/f/a/ g/c'/4b/4a/g/ | %160
 f/4e/4f/4e/4f/4e/4f/4e/4 f/4e/4f/4e/4f/4e/4f/4e/4 f/4e/4f/4e/4f/4e/4f/4e/4 | ef/e/ d/e/c{c} g2- | %162
 g/c'/a/=e/{e} f4- | f/a/g/d/ e/g/f/c/ d/f/e/=B/ | c/e/d/=A/ =B3/2c/4d/4 c/B/A/G/ | %165
 ef/e/ d/e/c b2- | b/g/=e/c/{c} a>c _d2- | d/B/c/f/ =d/g/f/a/ g/c'/4b/4a/g/ | %168
 f/4e/4f/4e/4f/4e/4f/4e/4 f/4e/4f/4e/4f/4e/4f/4e/4 f/4e/4f/4e/4f/4e/4f/4e/4 | Bc/B/ A/B/G e2- | %170
 e/d/e/g/ f/e/d/c/ B/=A/G/F/ | e/c/d/b/ d/B/c/=a/ c/=A/B/g/ | B/G/=A/g/ ^f-f/g/4=a/4 g/f/=e/d/ | %173
 ef/e/ d/e/c d2- | d/g/e/=B/ c4- | c/e/d/=A/ B/d/c/G/ A/c/B/^F/ | G/^F/=A/G/ G/4F/4G3/2- G2 | %177
 ef/e/ d/e/c a2- | a/f/_d/c/ d/f/a/g/ g2- | g/=e/f/a/ B/c/_d- d/c/B/g/ | B/A/G/A/ B/G/A/F/ d2- | %181
 d/c/=B/c/ d/B/c/A/ f2- | f/e/d/e/ f/d/e/c/ a2- | a/g/^f/g/ c'/=b/4=a/4g/=f/ f/4e/4f/4e/4d/c/ | %184
 c/4=B/4c3/2- c4 | Bc/B/ A/B/G e2- | e/d/e/g/ f/e/d/c/ B/=A/G/F/ | e/c/d/b/ d/B/c/=a/ c/=A/B/g/ | %188
 B/G/=A/g/ ^f-f/g/4=a/4 g/f/=e/d/ | ef/e/ d/e/c d2- | d/g/e/=B/ c4- | %191
 c/e/d/=A/ B/d/c/G/ A/c/B/^F/ | G/^F/=A/G/ G/4F/4G3/2- G2 | ef/e/ d/e/c a2- | %194
 a/f/_d/c/ d/f/a/g/ g2- | g/=e/f/a/ B/c/_d- d/c/B/g/ | B/A/G/A/ B/G/A/F/ d2- | %197
 d/c/=B/c/ d/B/c/A/ f2- | f/e/d/e/ f/d/e/c/ a2- | a/g/^f/g/ c'/=b/4=a/4g/=f/ f/4e/4f/4e/4d/c/ | %200
 c/4=B/4!fermata!c3/2- c4 |[M:2/2] z8 |[Q:1/4=120]"^Air" c/=B/c/d/ e/f/g gccc'/g/ | %203
 a/4g/4ag/ f/e/d/c/ =B/=A/B/c/ d/e/f/d/ | ecgB A/G/A/f/ e/d/c/B/ | a/f/g/e/ g/f/e/d/ e4 | %206
 c/=B/c/d/ e/f/g gccc'/g/ | a/4g/4ag/ f/e/d/c/ =B/=A/B/c/ d/e/f/d/ | ecgB A/G/A/f/ e/d/c/B/ | %209
 a/f/g/e/ g/f/e/d/ e4 | g/a/g/f/ e/d/c/B/ =A/B/c/A/ Ff- | fe/d/ c/d/e/c/ e/d/c/B/ b2- | %212
 b=a/b/ c'/b/a/g/ ^f/g/a/f/ d/f/a/c'/ | b>=a a>g g4 | =e/d/e/f/ g/a/b/g/ ac- c/d/_e/c/ | %215
 d/c/d/e/ f/g/a/f/ g=B- B/c/d/B/ | c/g/f/e/ f/d/e/c/ =B/f/e/d/ e/c/d/_B/ | %217
 A/e/d/c/ d/=B/c/A/ F/c/B/=A/ B/G/_A/F/ | E/D/E/G/ cE D/E/F/d/ c/=B/=A/G/ | %219
 c/=B/c/d/ e/f/g/a/ g/f/e/d/ c/B/=A/G/ | B/G/=A- A/c/d/e/ f/d/e- e/e/f/g/ | a/f/g/c'/ ed/c/ c4 | %222
 g/a/g/f/ e/d/c/B/ =A/B/c/A/ Ff- | fe/d/ c/d/e/c/ e/d/c/B/ b2- | %224
 b=a/b/ c'/b/a/g/ ^f/g/a/f/ d/f/a/c'/ | b>=a a>g g4 | =e/d/e/f/ g/a/b/g/ ac- c/d/_e/c/ | %227
 d/c/d/e/ f/g/a/f/ g=B- B/c/d/B/ | c/g/f/e/ f/d/e/c/ =B/f/e/d/ e/c/d/_B/ | %229
 A/e/d/c/ d/=B/c/A/ F/c/B/=A/ B/G/_A/F/ | E/D/E/G/ cE D/E/F/d/ c/=B/=A/G/ | %231
 c/=B/c/d/ e/f/g/a/ g/f/e/d/ c/B/=A/G/ | B/G/=A- A/c/d/e/ f/d/e- e/e/f/g/ | %233
 a/f/g/c'/ ed/c/ !fermata!c4 | z8 | z4[Q:1/4=180]"^Menuet" Gedc | =Bc a2 g2 f2 | edfe dc=B=A | %238
 c=B=AG edce | AGFf edcB | g2 e2 e/4d/4e/4d/4e/4d/4e/4d/4 e2- | e4 Gedc | =Bc a2 g2 f2 | %243
 edfe dc=B=A | c=B=AG edce | AGFf edcB | g2 e2 e/4d/4e/4d/4e/4d/4e/4d/4 e2- | e4 Bgfe | deBa gfef | %249
 Bbag fged | cd B2 gf=eg | _dcBg f=e=dc | a2 gf g=e f2- | f4 agfa | dcBd fagf | gfeg cBAc | %256
 egfe fedf | =B=AGB dfed | ecFe dc=B=A | c=B=AG e/4f/4g/4f/4g/4f/4g/4f/4 g/4f/4g/4f/4g/4f/4g/4f/4 | %260
 g/4f/4g/4f/4g/4f/4g/4f/4 g/4f/4g/4f/4g/4f/4g/4f/4 g/4f/4g/4f/4g/4f/4g/4f/4 g/4f/4g/4f/4g/4f/4g/4f/4 | %261
 g/4f/4g/4f/4agf =ef=ba | gfed edce | AGFe dc=Ba | g2 fe de c2- | c4 Bgfe | deBa gfef | Bbag fged | %268
 cd B2 gf=eg | _dcBg f=e=dc | a2 gf g=e f2- | f4 agfa | dcBd fagf | gfeg cBAc | egfe fedf | %275
 =B=AGB dfed | ecFe dc=B=A | c=B=AG e/4f/4g/4f/4g/4f/4g/4f/4 g/4f/4g/4f/4g/4f/4g/4f/4 | %278
 g/4f/4g/4f/4g/4f/4g/4f/4 g/4f/4g/4f/4g/4f/4g/4f/4 g/4f/4g/4f/4g/4f/4g/4f/4 g/4f/4g/4f/4g/4f/4g/4f/4 | %279
 g/4f/4g/4f/4agf =ef=ba | gfed edce | AGFe dc=Ba | g2 fe de c2- | c4 z4 |[M:3/8] z3 | %285
[Q:3/8=80]"^Gigue" z z/ c/G | c>de | d>ec | =B>cd | G>gc | f>ga | d>gf | e>dc | g3- | g>gc | f>ga | %296
 d>cB | f3- | f>fB | e>fg | c>de | A3- | A>AE | F>GA | D>CB, | B3- | B>eB | G>AF | E2 G | c3- | %310
 c>=Ac | e3- | e>ce | ^f>=ad | g>=ab | d>g^f | g3- | g>cG | c>de | d>ec | =B>cd | G>gc | f>ga | %323
 d>gf | e>dc | g3- | g>gc | f>ga | d>cB | f3- | f>fB | e>fg | c>de | A3- | A>AE | F>GA | D>CB, | %337
 B3- | B>eB | G>AF | E2 G | c3- | c>=Ac | e3- | e>ce | ^f>=ad | g>=ab | d>g^f | g3- | g>Gd | %350
 =B>=AG | f3- | f>gd | e>gb | _d>cg | =e>dc | f3- | f>cf | d>cB | e3- | e>c=e | f>dg | e>dc | f3- | %364
 f>dg | a>fb | g>fe | a3- | a>f=b | c'>gc | f>ga | gf/e/d/c/ | =B3- | B>dg | =e>dc | b3- | b>c'g | %377
 a>cf | d>cB | a3- | a>bf | g>ec | =A3- | A>fd | =B3- | B>ge | ca/g/f/e/ | _d/c/d/e/f/^c/ | %388
 =B/=A/B/c/d/B/ | A>Gf | e>dc | ce/d/c/=B/ | c3- | c/B/A/G/A/F/ | d3- | d/e/d/c/d/=B/ | %396
 f/g/f/e/f/d/ | a>gf | e/d/e/g/c'/g/ | e>fd | c3- | c>Gd | =B>=AG | f3- | f>gd | e>gb | _d>cg | %407
 =e>dc | f3- | f>cf | d>cB | e3- | e>c=e | f>dg | e>dc | f3- | f>dg | a>fb | g>fe | a3- | a>f=b | %421
 c'>gc | f>ga | gf/e/d/c/ | =B3- | B>dg | =e>dc | b3- | b>c'g | a>cf | d>cB | a3- | a>bf | g>ec | %434
 =A3- | A>fd | =B3- | B>ge | ca/g/f/e/ | _d/c/d/e/f/^c/ | =B/=A/B/c/d/B/ | A>Gf | e>dc | %443
 ce/d/c/=B/ | c3- | c/B/A/G/A/F/ | d3- | d/e/d/c/d/=B/ | f/g/f/e/f/d/ | a>gf | e/d/e/g/c'/g/ | %451
 e>fd | !fermata!c3- | c3/2 z3/2 |] %454
V:2
 z/ | E z z =B, C z z C- | C2- C=B, C2 C_B, | A,G, A,F, B,B,, B,A, | G,F, G,E, A,A,, A,G, | %5
 F,F,, F,E, D,D,, D,B,, | E,G,, A,,B,, E,E,, z E, | D,D,, z ^F, G,C, D,D,, | z4 z2 G,3/2 z/ | %9
 E z z =B, C z z C- | C2- C=B, C2 C_B, | A,G, A,F, B,B,, B,A, | G,F, G,E, A,A,, A,G, | %13
 F,F,, F,E, D,D,, D,B,, | E,G,, A,,B,, E,E,, z E, | D,D,, z ^F, G,C, D,D,, | z4 z2 G,3/2 z/ | %17
 =B, z z D C2 z C, | _B,B,, z B, A,G, F,C- | C B,3- B, A,3 | z4 z z/ _D/ C2- | C z z G, z4 | %22
 B,D, E,G, A,C, D,F, | G,=B,, C,E, F,/A,/4G,/4F,/E,/ D,/F,/4E,/4D,/C,/ | %24
 =B,,G,, C,/D,/E,/C,/ D,=A,, _B,,/D,/G,/F,/ | z4 z z/ A,/ G,2 | z4 z2 C,3/2 z/ | %27
 =B, z z D C2 z C, | _B,B,, z B, A,G, F,C- | C B,3- B, A,3 | z4 z z/ _D/ C2- | C z z G, z4 | %32
 B,D, E,G, A,C, D,F, | G,=B,, C,E, F,/A,/4G,/4F,/E,/ D,/F,/4E,/4D,/C,/ | %34
 =B,,G,, C,/D,/E,/C,/ D,=A,, _B,,/D,/G,/F,/ | z4 z z/ A,/ G,2 | z4 z2 !fermata!C,3/2 z/ | %37
[M:3/4] z6 | z2 z C,2 E,- | E, G,2 C2 C,- | C, C2 B,2 B,/4A,/4B,/4A,/4 | %41
 B,/4A,/4B,/4A,/4B,/4A,/4B,/4A,/4 B,/4A,/4B,/4A,/4 G,2 z | FE D E2 C- | C E2 F,2 z | ED C D2 B,- | %45
 B, D2 E,3 | G,F, A, G,2 E,- | E, G,2 A,2 F,- | F, A,2 B,2 G,- | G, B,2 C2 A,- | A, C2 D2 B,- | %51
 B, D2 E2 E, | F, G,2 A,2 B,- | B, B,,2 E,2 z | G,F, E, D,2 C,- | C, =B,,2 C,2 z | DC B, =A,2 G,- | %57
 G, ^F,2 G,2 z | G,=A, B, =E,2 D,- | D, ^C,2 D,2 =C,- | C, B,,2 C,2 D,- | D, D,,2 G,,3 | %62
 z z2 C,2 E,- | E, G,2 C2 C,- | C, C2 B,2 B,/4A,/4B,/4A,/4 | %65
 B,/4A,/4B,/4A,/4B,/4A,/4B,/4A,/4 B,/4A,/4B,/4A,/4 G,2 z | FE D E2 C- | C E2 F,2 z | ED C D2 B,- | %69
 B, D2 E,3 | G,F, A, G,2 E,- | E, G,2 A,2 F,- | F, A,2 B,2 G,- | G, B,2 C2 A,- | A, C2 D2 B,- | %75
 B, D2 E2 E, | F, G,2 A,2 B,- | B, B,,2 E,2 z | G,F, E, D,2 C,- | C, =B,,2 C,2 z | DC B, =A,2 G,- | %81
 G, ^F,2 G,2 z | G,=A, B, =E,2 D,- | D, ^C,2 D,2 =C,- | C, B,,2 C,2 D,- | D, D,,2 G,,3 | %86
 z z2 G,,2 =B,,- | B,, D,2 G,2 F,- | F, E,2 F,2 G,- | G, G,,2 C,2 E,- | E, G,2 C G,E, | %91
 C,G, B,, A,,2 z | z2 z z CA, | F,C E, _D,2 z | z2 z z F_D | B,_D A,G, DB, | G,B, F,=E, B,G, | %97
 =E,G, _D, C,3 | C, _D,2 B,,2 C,- | C, C,,2 F,,2 F,- | F, A,,2 B,, A,F, | E,D, C, B,,2 G,- | %102
 G, B,,2 C, B,G, | F,E, D, C,2 A,- | A, C,2 D,2 =B,- | B, D,2 E,2 A,- | A, F,2 G, F,E, | %107
 G,C, E, A,2 A,,- | A,, G,,2 G,2 F,- | F, F,,2 E,,2 E,- | E, D,2 D,,2 C,,- | C,, z F,,B,, D,E, | %112
 G,A, C F,2 z | F,G, A, D,2 C,- | C, =B,,2 C,2 z | CD E =A,2 G,- | G, ^F,2 G,2 =F,- | %117
 F, E,2 F,2 G,- | G, G,,2 C,,3 | z z2 G,,2 =B,,- | B,, D,2 G,2 F,- | F, E,2 F,2 G,- | %122
 G, G,,2 C,2 E,- | E, G,2 C G,E, | C,G, B,, A,,2 z | z2 z z CA, | F,C E, _D,2 z | z2 z z F_D | %128
 B,_D A,G, DB, | G,B, F,=E, B,G, | =E,G, _D, C,3 | C, _D,2 B,,2 C,- | C, C,,2 F,,2 F,- | %133
 F, A,,2 B,, A,F, | E,D, C, B,,2 G,- | G, B,,2 C, B,G, | F,E, D, C,2 A,- | A, C,2 D,2 =B,- | %138
 B, D,2 E,2 A,- | A, F,2 G, F,E, | G,C, E, A,2 A,,- | A,, G,,2 G,2 F,- | F, F,,2 E,,2 E,- | %143
 E, D,2 D,,2 C,,- | C,, z F,,B,, D,E, | G,A, C F,2 z | F,G, A, D,2 C,- | C, =B,,2 C,2 z | %148
 CD E =A,2 G,- | G, ^F,2 G,2 =F,- | F, E,2 F,2 G,- | G, G,,2 !fermata!C,,3 | z6 | z2 E2 D2 | %154
 C3 =B, CD | =B,2 C2 A,2 | =A,2 G,4- | G,G, F,E, F,G, | F,3 G, A,B,- | B,A,- A,D, E,F, | %160
 G,A,/B,/ A,/G,/A,/F,/ G,2 | z2 E2 D2 | C3 =B, CD | =B,2 C2 A,2 | =A,2 G,4- | G,G, F,E, F,G, | %166
 F,3 G, A,B,- | B,A,- A,D, E,F, | G,A,/B,/ A,/G,/A,/F,/ G,2 | G,A, B,4- | B,G, =A,4- | %171
 A,D, =E,^F, G,2- | G,2 =A,B, C2- | C2 B,2 =A,2 | G,3 ^F, G,=A, | D,G,- G,^F,/=E,/ F,C- | C2 =B,4 | %177
 C z z2 z2 | z B, A,G, F,=E, | z C, D,=E, F,E, | F,2 C4- | CF, A,4- | A,F, G,3 F, | G,=B, C3 B, | %184
 C6 | G,A, B,4- | B,G, =A,4- | A,D, =E,^F, G,2- | G,2 =A,B, C2- | C2 B,2 =A,2 | G,3 ^F, G,=A, | %191
 D,G,- G,^F,/=E,/ F,C- | C2 =B,4 | C z z2 z2 | z B, A,G, F,=E, | z C, D,=E, F,E, | F,2 C4- | %197
 CF, A,4- | A,F, G,3 F, | G,=B, C3 B, | !fermata!C6 |[M:2/2] z8 | CC,CB, A,/B,/C/B,/ A,/G,/F,/E,/ | %203
 F,G,A,F, G,=A,=B,G, | C,/=B,,/C,/D,/ E,/F,/G,/E,/ F,A,B,D, | %205
 E,A,B,B,, E,/D,/E,/F,/ G,/=A,/=B,/G,/ | CC,CB, A,/B,/C/B,/ A,/G,/F,/E,/ | F,G,A,F, G,=A,=B,G, | %208
 C,/=B,,/C,/D,/ E,/F,/G,/E,/ F,A,B,D, | E,A,B,B,, E,B,, E,,2 | E,F,G,E, F,/G,/=A,/B,/ C/D/E/C/ | %211
 DEFF, B,>=A, G,/F,/E,/D,/ | C,D,E,C, D,=E,^F,D, | G,C,D,D,, G,,G,/=A,/ =B,/C/D/B,/ | %214
 CC,C,C F,/=E,/F,/G,/ A,/B,/C/A,/ | B,B,,B,,B, E,/D,/E,/F,/ G,/A,/B,/G,/ | A,G,A,F, G,F,G,E, | %217
 F,E,F,D, G,F,E,D, | C,/=B,,/C,/D,/ E,/F,/G, G,G,, G,,C/G,/ | %219
 A,>G, F,/E,/D,/C,/ =B,,/=A,,/B,,/C,/ D,/E,/F,/D,/ | %220
 =E,/G,/F,/_E,/ D,/C,/=B,,/=A,,/ B,,/D,/C,/_B,,/ _A,,/G,,/F,,/E,,/ | F,,/D,,/E,,/C,,/ G,,G,, C,,4 | %222
 E,F,G,E, F,/G,/=A,/B,/ C/D/E/C/ | DEFF, B,>=A, G,/F,/E,/D,/ | C,D,E,C, D,=E,^F,D, | %225
 G,C,D,D,, G,,G,/=A,/ =B,/C/D/B,/ | CC,C,C F,/=E,/F,/G,/ A,/B,/C/A,/ | %227
 B,B,,B,,B, E,/D,/E,/F,/ G,/A,/B,/G,/ | A,G,A,F, G,F,G,E, | F,E,F,D, G,F,E,D, | %230
 C,/=B,,/C,/D,/ E,/F,/G, G,G,, G,,C/G,/ | A,>G, F,/E,/D,/C,/ =B,,/=A,,/B,,/C,/ D,/E,/F,/D,/ | %232
 =E,/G,/F,/_E,/ D,/C,/=B,,/=A,,/ B,,/D,/C,/_B,,/ _A,,/G,,/F,,/E,,/ | %233
 F,,/D,,/E,,/C,,/ G,,G,, !fermata!C,,4 | z8 | z4 C,2 D,2 | E,2 F,F EDC=B, | C2 A,2 F,2 G,2 | %238
 =A,2 =B,2 C2 z2 | C,2 D,2 z2 D2 | E2 A,2 B,2 E,G, | F,E,D,E, C,2 D,2 | E,2 F,F EDC=B, | %243
 C2 A,2 F,2 G,2 | =A,2 =B,2 C2 z2 | C,2 D,2 z2 D2 | E2 A,2 B,2 E,G, | F,E,D,E, E,2 F,2 | %248
 G,2 D,2 z4 | E,2 C,2 A,,2 B,,B, | A,G,F,G, =E,2 z2 | z2 C,2 D,2 =E,2 | F,2 C2 C,2 F,_D | %253
 CB,A,C F,2 A,2 | F,2 D,2 B,,2 D,2 | E,2 G,2 E,2 C,2 | A,,2 C,2 D,2 F,2 | D,2 =B,,2 G,,2 B,,2 | %258
 C,2 A,2 F,2 G,2 | G,,2 z2 D,A,G,F, | =E,F,C,A, G,F,E,F, | =B,,2 C,2 D,2 G,,2 | =A,,2 =B,,2 C,4 | %263
 z2 D,4 z2 | E,2 F,2 G,2 C,2- | C,4 E,2 F,2 | G,2 D,2 z4 | E,2 C,2 A,,2 B,,B, | A,G,F,G, =E,2 z2 | %269
 z2 C,2 D,2 =E,2 | F,2 C2 C,2 F,_D | CB,A,C F,2 A,2 | F,2 D,2 B,,2 D,2 | E,2 G,2 E,2 C,2 | %274
 A,,2 C,2 D,2 F,2 | D,2 =B,,2 G,,2 B,,2 | C,2 A,2 F,2 G,2 | G,,2 z2 D,A,G,F, | =E,F,C,A, G,F,E,F, | %279
 =B,,2 C,2 D,2 G,,2 | =A,,2 =B,,2 C,4 | z2 D,4 z2 | E,2 F,2 G,2 C,2- | C,4 z4 |[M:3/8] z3 | %285
 z z/ z/ z | z z/ G,/C, | F,>G,A, | G,>A,F, | E,>F,G, | A,>G,F, | G,2 G,, | C,2 C | =B,>=A,G, | %294
 C2 B, | _A,>CF, | B,>CD | =A,>G,F, | B,2 A, | G,>B,E, | A,>B,C | F,>G,A, | D,3- | D,>E,F, | %304
 B,,>D,F, | A,>G,F, | G,>E,G, | B,2 B,, | E,3- | E,>G,C, | ^F,>G,=A, | C,>E,G,, | =A,,>B,,C, | %313
 D,,2 C, | B,,>=A,,G,, | D,2 D,, | G,,>=B,,D, | G,3/2 z/ z | z z/ G,/C, | F,>G,A, | G,>A,F, | %321
 E,>F,G, | A,>G,F, | G,2 G,, | C,2 C | =B,>=A,G, | C2 B, | _A,>CF, | B,>CD | =A,>G,F, | B,2 A, | %331
 G,>B,E, | A,>B,C | F,>G,A, | D,3- | D,>E,F, | B,,>D,F, | A,>G,F, | G,>E,G, | B,2 B,, | E,3- | %341
 E,>G,C, | ^F,>G,=A, | C,>E,G,, | =A,,>B,,C, | D,,2 C, | B,,>=A,,G,, | D,2 D,, | G,,>=B,,D, | %349
 G,3/2 z/ z | z/ z G,/D | =B,>=A,G, | C3- | C>C,G, | =E,>D,C, | B,3- | B,>CG, | A,F, z | %358
 z z/ F,/B, | G,>F,E, | A,3- | A,>F,=B, | C>G,C | A,>G,F, | C3- | C>A,D | E>B,E | C>B,A, | E3- | %369
 E>C=E | A,>CD, | E,2 F, | G,>=B,,D, | G,,2 z | z/ z C,/G, | =E,>D,C, | F,3- | F,>G,A, | B,>B,,F, | %379
 D,>C,B,, | E,3- | E,>G,C | E>C=A, | F,>=A,D | F>D=B, | G,3- | G,C/B,/A,/G,/ | F,>CA, | F,>CA, | %389
 F,>=B,G, | C>G,A, | F,G,G,, | A,,>C,D,/=E,/ | F,3- | F,>D,F, | A,3- | A,>F,A, | =B,>DG, | C>C,E, | %399
 G,2 G,, | C,>E,,G,, | C,,3/2 z/ z | z/ z G,/D | =B,>=A,G, | C3- | C>C,G, | =E,>D,C, | B,3- | %408
 B,>CG, | A,F, z | z z/ F,/B, | G,>F,E, | A,3- | A,>F,=B, | C>G,C | A,>G,F, | C3- | C>A,D | E>B,E | %419
 C>B,A, | E3- | E>C=E | A,>CD, | E,2 F, | G,>=B,,D, | G,,2 z | z/ z C,/G, | =E,>D,C, | F,3- | %429
 F,>G,A, | B,>B,,F, | D,>C,B,, | E,3- | E,>G,C | E>C=A, | F,>=A,D | F>D=B, | G,3- | G,C/B,/A,/G,/ | %439
 F,>CA, | F,>CA, | F,>=B,G, | C>G,A, | F,G,G,, | A,,>C,D,/=E,/ | F,3- | F,>D,F, | A,3- | A,>F,A, | %449
 =B,>DG, | C>C,E, | G,2 G,, | C,>E,,G,, | !fermata!C,,3/2 z3/2 |] %454
V:3
 x/ | z2 z/ GF/ z E- E/F/G | A z z2 z2 z/ ed/ | c2- c/cc/ z2 z/ dc/ | B2- B/BB/ z2 z/ cB/ | %5
 A>e- e/dc/ B>B- B/fd/ | B2 z/ cA/ G2 z/ =B/c/G/ | ^F/ z/ z z/ c=A/- A/G/4F/4G- G>F | %8
 G>F E2- E/D/4C/4=B,/4C/4D/- D3/2 z/ | z2 z/ GF/ z E- E/F/G | A z z2 z2 z/ ed/ | %11
 c2- c/cc/ z2 z/ dc/ | B2- B/BB/ z2 z/ cB/ | A>e- e/dc/ B>B- B/fd/ | B2 z/ cA/ G2 z/ =B/c/G/ | %15
 ^F/ z/ z z/ c=A/- A/G/4F/4G- G>F | G>F E2- E/D/4C/4=B,/4C/4D/- D3/2 x/ | z2 GF E2 z2 | %18
 z2 cG F2 A/c/4B/4A/4G/4F/- | F/G/4A/4B/F/ G/B/E- E/F/4G/4A/=E/ F/ z/ z | x8 | %21
 z/4 g/4f/4=e/4f _dB- B/A/4G/4A/4B/4c/ F2 | z z/ f/ B2 z z/ e/ A2 | z z/ d/ G2 A2 F2- | %24
 F>F E>=A ^F z z/ D_D/ | x8 | e>d- d/c/F- F/G/4F/4=E/4F/4G/- G3/2 x/ | z2 GF E2 z2 | %28
 z2 cG F2 A/c/4B/4A/4G/4F/- | F/G/4A/4B/F/ G/B/E- E/F/4G/4A/=E/ F/ z/ z | x8 | %31
 z/4 g/4f/4=e/4f _dB- B/A/4G/4A/4B/4c/ F2 | z z/ f/ B2 z z/ e/ A2 | z z/ d/ G2 A2 F2- | %34
 F>F E>=A ^F z z/ D_D/ | x8 | e>d- d/c/F- F/G/4F/4=E/4F/4G/- !fermata!G3/2 x/ |[M:3/4] x6 | x6 | %39
 x6 | x6 | x6 | x6 | x6 | x6 | x6 | x6 | x6 | x6 | x6 | x6 | x6 | x6 | x6 | x6 | x6 | x6 | x6 | %58
 x6 | x6 | x6 | x3 D3 | z2 z x3 | z6 | x6 | x6 | x6 | x6 | x6 | x6 | x6 | x6 | x6 | x6 | x6 | x6 | %76
 x6 | x6 | x6 | x6 | x6 | x6 | x6 | x6 | x6 | x3 D3 | x6 | x6 | x6 | x3 z2 z | z =B2 c3- | %91
 c3- c z z | z =e2 f3- | f3- f gf | e_d c B3- | B3- B3- | B3- B2 =E- | E F2 =E2 z | z2 z x3 | x6 | %100
 x6 | x6 | x6 | x6 | x6 | x6 | x6 | x6 | x6 | x6 | x6 | x6 | x6 | x6 | x6 | x6 | x6 | x6 | x3 G3 | %119
 z z2 x3 | x6 | x6 | x3 z2 z | z =B2 c3- | c3- c z z | z =e2 f3- | f3- f gf | e_d c B3- | B3- B3- | %129
 B3- B2 =E- | E F2 =E2 z | z2 z x3 | x6 | x6 | x6 | x6 | x6 | x6 | x6 | x6 | x6 | x6 | x6 | x6 | %144
 x6 | x6 | x6 | x6 | x6 | x6 | x6 | x3 G3 | x6 | x6 | x6 | x6 | x6 | x6 | x6 | x6 | x6 | x6 | x6 | %163
 x6 | x6 | x6 | x6 | x6 | x6 | x6 | x6 | x6 | x6 | x6 | x6 | x6 | x6 | x6 | x6 | x6 | x6 | x6 | %182
 x6 | x6 | x6 | x6 | x6 | x6 | x6 | x6 | x6 | x6 | x6 | x6 | x6 | x6 | x6 | x6 | x6 | x6 | x6 | %201
[M:2/2] x8 | x8 | x8 | x8 | x8 | x8 | x8 | x8 | x8 | x8 | x8 | x8 | x8 | x8 | x8 | x8 | x8 | x8 | %219
 x8 | x8 | x8 | x8 | x8 | x8 | x8 | x8 | x8 | x8 | x8 | x8 | x8 | x8 | x8 | x8 | x8 | x8 | x8 | %238
 x8 | x8 | x8 | x8 | x8 | x8 | x8 | x8 | x8 | x8 | x8 | x8 | x8 | x8 | x8 | x8 | x8 | x8 | x8 | %257
 x8 | x8 | x8 | x8 | x8 | x8 | x8 | x8 | x8 | x8 | x8 | x8 | x8 | x8 | x8 | x8 | x8 | x8 | x8 | %276
 x8 | x8 | x8 | x8 | x8 | x8 | x8 | x8 |[M:3/8] x3 | x3 | x3 | x3 | x3 | x3 | x3 | x3 | x3 | x3 | %294
 x3 | x3 | x3 | x3 | x3 | x3 | x3 | x3 | x3 | x3 | x3 | x3 | x3 | x3 | x3 | x3 | x3 | x3 | x3 | %313
 x3 | x3 | x3 | x3 | x3 | x3 | x3 | x3 | x3 | x3 | x3 | x3 | x3 | x3 | x3 | x3 | x3 | x3 | x3 | %332
 x3 | x3 | x3 | x3 | x3 | x3 | x3 | x3 | x3 | x3 | x3 | x3 | x3 | x3 | x3 | x3 | x3 | x3 | x3 | %351
 x3 | x3 | x3 | x3 | x3 | x3 | x3 | x3 | x3 | x3 | x3 | x3 | x3 | x3 | x3 | x3 | x3 | x3 | x3 | %370
 x3 | x3 | x3 | x3 | x3 | x3 | x3 | x3 | x3 | x3 | x3 | x3 | x3 | x3 | x3 | x3 | x3 | x3 | x3 | %389
 x3 | x3 | x3 | x3 | x3 | x3 | x3 | x3 | x3 | x3 | x3 | x3 | x3 | x3 | x3 | x3 | x3 | x3 | x3 | %408
 x3 | x3 | x3 | x3 | x3 | x3 | x3 | x3 | x3 | x3 | x3 | x3 | x3 | x3 | x3 | x3 | x3 | x3 | x3 | %427
 x3 | x3 | x3 | x3 | x3 | x3 | x3 | x3 | x3 | x3 | x3 | x3 | x3 | x3 | x3 | x3 | x3 | x3 | x3 | %446
 x3 | x3 | x3 | x3 | x3 | x3 | x3 | x3 |] %454
V:4
 x/ | CC, z G, A,A,, z E, | F,D,G,G, CC, z2 | x8 | x8 | x8 | x8 | x8 | G,,4- G,,7/2 z/ | %9
 CC, z G, A,A,, z E, | F,D,G,G, CC, z2 | x8 | x8 | x8 | x8 | x8 | G,,4- G,,7/2 x/ | %17
 G,G,, z G, CC, z2 | x8 | B,,2 E,G, A,,2 _D,F, | G,,G, B,_D CG, =E,C, | F,A,, B,,C, F,,F, A,F, | %22
 x8 | x8 | x8 | =E,G,, A,,/C,/F,/_E,/ D,C, =B,,G,, | C,/D,/E,/F,/ G,G,, C,,7/2 z/ | %27
 G,G,, z G, CC, z2 | x8 | B,,2 E,G, A,,2 _D,F, | G,,G, B,_D CG, =E,C, | F,A,, B,,C, F,,F, A,F, | %32
 x8 | x8 | x8 | =E,G,, A,,/C,/F,/_E,/ D,C, =B,,G,, | C,/D,/E,/F,/ G,G,, C,,7/2 x/ |[M:3/4] x6 | %38
 x6 | x6 | x6 | x6 | x6 | x6 | x6 | x6 | x6 | x6 | x6 | x6 | x6 | x6 | x6 | x6 | x6 | x6 | x6 | %57
 x6 | x6 | x6 | x6 | x6 | x6 | x6 | x6 | x6 | x6 | x6 | x6 | x6 | x6 | x6 | x6 | x6 | x6 | x6 | %76
 x6 | x6 | x6 | x6 | x6 | x6 | x6 | x6 | x6 | x6 | x6 | x6 | x6 | x6 | x6 | x6 | x6 | x6 | x6 | %95
 x6 | x6 | x6 | x6 | x6 | x6 | x6 | x6 | x6 | x6 | x6 | x6 | x6 | x6 | x6 | x6 | x6 | x6 | x6 | %114
 x6 | x6 | x6 | x6 | x6 | x6 | x6 | x6 | x6 | x6 | x6 | x6 | x6 | x6 | x6 | x6 | x6 | x6 | x6 | %133
 x6 | x6 | x6 | x6 | x6 | x6 | x6 | x6 | x6 | x6 | x6 | x6 | x6 | x6 | x6 | x6 | x6 | x6 | x6 | %152
 x6 | C4 B,2 | A,3 A, G,F, | G,2 CA, F,2 | ^F,2 z G,, =A,,=B,, | C,2 z C, D,=E, | F,F,, F,2- F,G, | %159
 A,F, B,,4 | E,6 | C4 B,2 | A,3 A, G,F, | G,2 CA, F,2 | ^F,2 z G,, =A,,=B,, | C,2 z C, D,=E, | %166
 F,F,, F,2- F,G, | A,F, B,,4 | E,6 | E,3 E, F,G, | C,2 z D, E,F, | B,,2 =A,,2 G,G,, | %172
 C,E, D,3 ^F, | G,4 F,2 | E,3 E, D,C, | B,,G,, D,4 | G,3 F, E,D, | C,G, F,E, D,C, | B,,6 | %179
 A,,4 G,,2 | F,,2 z F, G,A, | D,2 z D, E,F, | =B,,2 z B,, C,D, | E,D, E,F, G,2 | z G, E,G, C,2 | %185
 E,3 E, F,G, | C,2 z D, E,F, | B,,2 =A,,2 G,G,, | C,E, D,3 ^F, | G,4 F,2 | E,3 E, D,C, | %191
 B,,G,, D,4 | G,3 F, E,D, | C,G, F,E, D,C, | B,,6 | A,,4 G,,2 | F,,2 z F, G,A, | D,2 z D, E,F, | %198
 =B,,2 z B,, C,D, | E,D, E,F, G,2 | z G, E,G, !fermata!C,2 |[M:2/2] x8 | x8 | x8 | x8 | x8 | x8 | %207
 x8 | x8 | x8 | x8 | x8 | x8 | x8 | x8 | x8 | x8 | x8 | x8 | x8 | x8 | x8 | x8 | x8 | x8 | x8 | %226
 x8 | x8 | x8 | x8 | x8 | x8 | x8 | x8 | x8 | x8 | x8 | x8 | x8 | x8 | x8 | x8 | x8 | x8 | x8 | %245
 x8 | x8 | x8 | x8 | x8 | x8 | x8 | x8 | x8 | x8 | x8 | x8 | x8 | x8 | x8 | x8 | x8 | x8 | x8 | %264
 x8 | x8 | x8 | x8 | x8 | x8 | x8 | x8 | x8 | x8 | x8 | x8 | x8 | x8 | x8 | x8 | x8 | x8 | x8 | %283
 x8 |[M:3/8] x3 | x3 | x3 | x3 | x3 | x3 | x3 | x3 | x3 | x3 | x3 | x3 | x3 | x3 | x3 | x3 | x3 | %301
 x3 | x3 | x3 | x3 | x3 | x3 | x3 | x3 | x3 | x3 | x3 | x3 | x3 | x3 | x3 | x3 | x3 | x3 | x3 | %320
 x3 | x3 | x3 | x3 | x3 | x3 | x3 | x3 | x3 | x3 | x3 | x3 | x3 | x3 | x3 | x3 | x3 | x3 | x3 | %339
 x3 | x3 | x3 | x3 | x3 | x3 | x3 | x3 | x3 | x3 | x3 | x3 | x3 | x3 | x3 | x3 | x3 | x3 | x3 | %358
 x3 | x3 | x3 | x3 | x3 | x3 | x3 | x3 | x3 | x3 | x3 | x3 | x3 | x3 | x3 | x3 | x3 | x3 | x3 | %377
 x3 | x3 | x3 | x3 | x3 | x3 | x3 | x3 | x3 | x3 | x3 | x3 | x3 | x3 | x3 | x3 | x3 | x3 | x3 | %396
 x3 | x3 | x3 | x3 | x3 | x3 | x3 | x3 | x3 | x3 | x3 | x3 | x3 | x3 | x3 | x3 | x3 | x3 | x3 | %415
 x3 | x3 | x3 | x3 | x3 | x3 | x3 | x3 | x3 | x3 | x3 | x3 | x3 | x3 | x3 | x3 | x3 | x3 | x3 | %434
 x3 | x3 | x3 | x3 | x3 | x3 | x3 | x3 | x3 | x3 | x3 | x3 | x3 | x3 | x3 | x3 | x3 | x3 | x3 | %453
 x3 |] %454
V:5
 x/ | x8 | x8 | x8 | x8 | x8 | x8 | x8 | z4 z =B,- B,3/2 z/ | x8 | x8 | x8 | x8 | x8 | x8 | x8 | %16
 z4 z =B,- B,3/2 x/ | x8 | x8 | x8 | x8 | x8 | x8 | x8 | x8 | x8 | z4 z =E- E3/2 x/ | x8 | x8 | %29
 x8 | x8 | x8 | x8 | x8 | x8 | x8 | z4 z =E- E3/2 x/ |[M:3/4] x6 | x6 | x6 | x6 | x6 | x6 | x6 | %44
 x6 | x6 | x6 | x6 | x6 | x6 | x6 | x6 | x6 | x6 | x6 | x6 | x6 | x6 | x6 | x6 | x6 | x3 =B,3 | %62
 z2 z x3 | z6 | x6 | x6 | x6 | x6 | x6 | x6 | x6 | x6 | x6 | x6 | x6 | x6 | x6 | x6 | x6 | x6 | %80
 x6 | x6 | x6 | x6 | x6 | x3 =B,3 | x6 | x6 | x6 | x6 | x6 | x6 | x6 | x6 | x6 | x6 | x6 | x6 | %98
 x6 | x6 | x6 | x6 | x6 | x6 | x6 | x6 | x6 | x6 | x6 | x6 | x6 | x6 | x6 | x6 | x6 | x6 | x6 | %117
 x6 | x3 E3 | z z2 x3 | x6 | x6 | x6 | x6 | x6 | x6 | x6 | x6 | x6 | x6 | x6 | x6 | x6 | x6 | x6 | %135
 x6 | x6 | x6 | x6 | x6 | x6 | x6 | x6 | x6 | x6 | x6 | x6 | x6 | x6 | x6 | x6 | x3 E3 | x6 | x6 | %154
 x6 | x6 | x6 | x6 | x6 | x6 | x6 | x6 | x6 | x6 | x6 | x6 | x6 | x6 | x6 | x6 | x6 | x6 | x6 | %173
 x6 | x6 | x6 | x6 | x6 | x6 | x6 | x6 | x6 | x6 | x6 | x6 | x6 | x6 | x6 | x6 | x6 | x6 | x6 | %192
 x6 | x6 | x6 | x6 | x6 | x6 | x6 | x6 | x6 |[M:2/2] x8 | x8 | x8 | x8 | x8 | x8 | x8 | x8 | x8 | %210
 x8 | x8 | x8 | x8 | x8 | x8 | x8 | x8 | x8 | x8 | x8 | x8 | x8 | x8 | x8 | x8 | x8 | x8 | x8 | %229
 x8 | x8 | x8 | x8 | x8 | x8 | x8 | x8 | x8 | x8 | x8 | x8 | x8 | x8 | x8 | x8 | x8 | x8 | x8 | %248
 x8 | x8 | x8 | x8 | x8 | x8 | x8 | x8 | x8 | x8 | x8 | x8 | x8 | x8 | x8 | x8 | x8 | x8 | x8 | %267
 x8 | x8 | x8 | x8 | x8 | x8 | x8 | x8 | x8 | x8 | x8 | x8 | x8 | x8 | x8 | x8 | x8 |[M:3/8] x3 | %285
 x3 | x3 | x3 | x3 | x3 | x3 | x3 | x3 | x3 | x3 | x3 | x3 | x3 | x3 | x3 | x3 | x3 | x3 | x3 | %304
 x3 | x3 | x3 | x3 | x3 | x3 | x3 | x3 | x3 | x3 | x3 | x3 | x3 | x3 | x3 | x3 | x3 | x3 | x3 | %323
 x3 | x3 | x3 | x3 | x3 | x3 | x3 | x3 | x3 | x3 | x3 | x3 | x3 | x3 | x3 | x3 | x3 | x3 | x3 | %342
 x3 | x3 | x3 | x3 | x3 | x3 | x3 | x3 | x3 | x3 | x3 | x3 | x3 | x3 | x3 | x3 | x3 | x3 | x3 | %361
 x3 | x3 | x3 | x3 | x3 | x3 | x3 | x3 | x3 | x3 | x3 | x3 | x3 | x3 | x3 | x3 | x3 | x3 | x3 | %380
 x3 | x3 | x3 | x3 | x3 | x3 | x3 | x3 | x3 | x3 | x3 | x3 | x3 | x3 | x3 | x3 | x3 | x3 | x3 | %399
 x3 | x3 | x3 | x3 | x3 | x3 | x3 | x3 | x3 | x3 | x3 | x3 | x3 | x3 | x3 | x3 | x3 | x3 | x3 | %418
 x3 | x3 | x3 | x3 | x3 | x3 | x3 | x3 | x3 | x3 | x3 | x3 | x3 | x3 | x3 | x3 | x3 | x3 | x3 | %437
 x3 | x3 | x3 | x3 | x3 | x3 | x3 | x3 | x3 | x3 | x3 | x3 | x3 | x3 | x3 | x3 | x3 |] %454

